X:343
T: Gongchandang de enqing changbuwan
N: C1844
O: China,Qinghai Huangyuan
S: I, 214]
N: Hui Han
R: Shange, Bacaoling]
M: 3/8
L: 1/16
K: C
D2G2GE | D6- | D2z2DG | G2G3A | d6- | d6 |
g2d2dc | A4(3cAc | d2d2dc | A4z2 |
D2G2GE | D6- | D2z2DG | G2G2A2- | A2d2g2 | d2d2dc | A2G4- | G4A2 |
d2d2dg | A2c2A2- | A2G4- | G6

@@@ Tune index: 6898
